X:1
T:Title
%%score { ( 1 4 ) | ( 2 3 ) }
L:1/8
Q:1/4=106
M:4/4
K:C
V:1 treble nm="Grand Piano"
V:4 treble 
V:2 bass 
V:3 bass 
V:1
 [EG]2 [CEG]G A2 [CE]2 | [EG]2 [CEG][CEG] [EA]2 [CE]2 | [EG]2 AB [EGd]2 [EGc]2 | [B,DF]8 | %4
w: William~Moore * * * *||||
 [FA]2 [DFA][DA] [FB]2 [B,FA]2 | [EG]2 AB [EGd]2 [_EGc]2 | [DGB]2 DB [E^Fc]2 [CDF]2 | %7
w: |||
 [B,DG]8[K:bass] | z2 [EG]2 z2 [E^G]2 | z2 [CF]2 z2 D2 | [G,CE]2 [A,CF][G,CE] [G,B,E]2 [G,B,D]2 | %11
w: ||||
 G2- [F,B,G-]2 [E,CG-]2 [CEG]2 | F2- [CF]2 E2- [CE]2 | A2- [B,DA]2 [CG]2 [C^FA]2 | %14
w: |||
 [DGB]2 AB [E^Fc]2 [CFA]2 | [FBd]2- [F-GB-d-g]2 [F-GB-d-g]2 [FGBdg]2 | z2 [EG]2 z2 [EG]2 | %17
w: |||
 z2 [CF]2 z2 D2 | [G,CE]2 [A,CF][G,CE] [G,B,E]2 [G,B,D]2 | G4 ^G4 | A4 E4 | %21
w: ||||
 [A,DF]2 [A,^CG]2 [A,DA]2 [DFd]2 | c2- [DFc]2 B2- [DFGB]2 | [CEGc]6 z2 |] %24
w: |||
V:2
 [C,G,C]2 z [CE] [C,G,C]2 [G,,G,]2 | [C,G,C]2 [G,,G,]2 [C,G,C]2 [G,,G,]2 | %2
 [C,G,C]2 [G,,G,]2 [C,G,]2 [G,,G,]2 | [D,G,]2 B,,2 A,,2 G,,2 | %4
 [D,G,D]2 [G,,G,]2 [D,G,D]2 [G,,G,]2 | [C,G,C]2 [G,,G,]2 [C,G,]2 [A,,A,]2 | %6
 [D,,D,]2 z [DG] [D,,D,]2 [D,,D,]2 | [G,,G,]2 F,,2 E,,2 D,,2 | [C,,C,]4 [E,,E,]4 | %9
 [F,,F,]4 z2 A,2 | G,,2 G,,G,, G,,2 F,2 | E,2 D,2 C,2 _B,,2 | z2 F,2 z2 G,2 | %13
 [F,,F,]4 [E,,E,]2 [_E,,_E,]2 | z2[K:treble] [CG][DG][K:bass] [D,,D,]4 | %15
 [G,,G,]2 [F,,F,]2 [E,,E,]2 [D,,D,]2 | [C,,C,]4 [E,,E,]4 | [F,,F,]4 z2 A,2 | G,,2 G,,G,, G,,2 F,2 | %19
 E,2 E,2 D,2 D,2 | z2 A,2 z2 A,2 | [D,,D,]2 [E,,E,]2 [F,,F,]2 [D,,D,]2 | %22
 [A,,A,]2 [^G,,^G,]2 [=G,,=G,]2 [G,,,G,,]2 | [C,,C,]2 G,,E,, C,,2 z2 |] %24
V:3
 z2 [G,,G,]2 z4 | x8 | x8 | x8 | x8 | x8 | z2 [D,,D,]2 z4 | x8 | x8 | z4 [D,,D,]4 | x8 | x8 | %12
 A,,4 G,,4 | x8 | [D,,D,]4[K:treble][K:bass] z4 | x8 | x8 | z4 [D,,D,]4 | x8 | x8 | ^C,4 A,,4 | %21
 x8 | x8 | x8 |] %24
V:4
 x8 | x8 | z2 [CE]2 z4 | z2 G,2 G,2 G,2 | x8 | z2 [CE]2 z4 | x8 | z2[K:bass] F,2 E,2 D,2 | %8
 [Cc]4 [B,B]4 | [A,A]4 [F,F]4 | x8 | [G,C]2 z2 z4 | [F,C]2 z2 [G,C]2 z2 | [A,F]2 z2 z4 | x8 | %15
 G2 z2 z4 | [Cc]4 [B,B]4 | [A,A]4 [F,F]4 | x8 | [G,C]2 [G,C]2 [B,E]2 [B,E]2 | %20
 [A,E]2 E2 [A,^C]2 C2 | x8 | [DF]2 z2 [DF]2 z2 | x8 |] %24

